!!!!SEGMENT: pl-kk--kk-i-6--061_anonim--deo-gratias.krn
!!!cenid: 16xx:1057
!!!COM: Anonim
!!!COM-rismID: pe30004985
!!!CDT:
!!!CNT:
!!!OTL: Deo gratias
!!!PDT:
!!!AGN:
!!!SMS-siglum: PL-Kk
!!!SMS-shelfmark: Kk.I.6
!!!SMS-shelfwork: 061 W
!!!SMS-variant:
!!!SMS-altvar:
!!!NIFC-rismSourceID: 1001136579
!!!NIFC-islandoraID: pl-kk:1634
!!!URL-pdf-islandora: https://repozytorium.nifc.pl/islandora/object/pl-kk%3A1634/datastream/PDF/view
!!!URL-scan: https://polish.musicsources.pl/pl/lokalizacje/galeria/rekopisy/6133 @EN{Scan on Polish Music Sources Website} @PL{Skany w portalu Dziedzictwo Muzyki Polskiej w otwartym dostępie}
!!!ONB-nifc: UWAGA: C (skan 0088, s. 172), T (skan 0199, s. 202), B (skan 0312, s. 206) A Dnica in Albis usg ad Dnicam Ss.Trinitatis
!!!AIN: 1 empty 1 tenor 1 vox
!!!key:
**kern	**text	**kern	**text	**kern	**text
*group1	*	*group1	*	*group1	*
*part3	*part3	*part2	*part2	*part1	*part1
*staff3	*staff3	*staff2	*staff2	*staff1	*staff1
*Iempty	*	*Itenor	*	*Ivox	*
*I"Baſsus.	*	*I"Tenor.	*	*I"Cantus.	*
*I'[B]	*	*I'[T]	*	*I'[S]	*
*clefF4	*	*clefC4	*	*clefC4	*
*k[]	*	*k[]	*	*k[]	*
*c:	*	*c:	*	*c:	*
*M2/2	*	*M2/2	*	*M2/2	*
*met(C|)	*	*met(C|)	*	*met(C|)	*
=1-	=1-	=1-	=1-	=1-	=1-
*	*	*	*	*lig	*
1r	.	2r	.	1c	De-
.	.	1c\	De-	.	.
=2-	=2-	=2-	=2-	=2-	=2-
*lig	*	*	*	*	*
1G	De-	.	.	1d	.
!	!	!LO:TX:t=P:problem=2\middle	!	!	!
.	.	2B\	-o	.	.
*	*	*	*	*Xlig	*
=3-	=3-	=3-	=3-	=3-	=3-
1A	.	2c\	gra-	1c	.
.	.	2A/	.	.	.
*Xlig	*	*	*	*	*
=4-	=4-	=4-	=4-	=4-	=4-
*	*	*	*	*lig	*
1G	-o	2.B\	.	1B	.
!	!	!LO:TX:t=P:problem=4\middle&colon; global	!	!	!
.	.	4c\	-ti-	.	.
*	*	*custos:d	*	*	*
!	!	!LO:LB:g=original	!	!	!
=5-	=5-	=5-	=5-	=5-	=5-
1.F	gra-	2d\	-as	1A	.
.	.	4c\	.	.	.
.	.	4B\	.	.	.
*	*	*	*	*Xlig	*
=6-	=6-	=6-	=6-	=6-	=6-
!	!	!LO:TX:t=P:problem=4/middle&colon; global	!	!	!
.	.	4A/	.	1c	.
.	.	4B\	.	.	.
!LO:TX:t=P:problem=2\middle&colon; global	!	!	!	!	!
2E\	-ti-	2c\	.	.	.
=7-	=7-	=7-	=7-	=7-	=7-
*	*	*	*ij	*lig	*
2F\	-as	2A/	De-	1c	-o
*	*ij	*	*	*	*
2C/	De-	2G/	.	.	.
=8-	=8-	=8-	=8-	=8-	=8-
2D/	.	2F/	.	1A	.
2F\	.	2A/	.	.	.
*custos:E	*	*	*	*	*
!LO:LB:g=original	!	!	!	!	!
*	*	*	*	*Xlig	*
=9-	=9-	=9-	=9-	=9-	=9-
*	*	*	*	*lig	*
2E\	.	2G/	.	1c	.
2.C/	.	1c\	.	.	.
=10-	=10-	=10-	=10-	=10-	=10-
.	.	.	.	1G	.
!LO:TX:t=P:problem=4/middle&colon; global	!	!	!	!	!
4D/	.	.	.	.	.
2E\	.	4B\	.	.	.
.	.	4A/	.	.	.
*	*	*	*	*custos:F	*
!	!	!	!	!LO:LB:g=original	!
*	*	*	*	*Xlig	*
=11-	=11-	=11-	=11-	=11-	=11-
1D	.	2d\	-o	1F	.
!	!	!LO:TX:t=P:problem=kawałek strony wyrwany	!	!	!
.	.	2ryy	.	.	.
=12-	=12-	=12-	=12-	=12-	=12-
*	*	*	*	*lig	*
2AA/	.	2ryy	.	1A	gra-
2C/	.	1A\	gra-	.	.
=13-	=13-	=13-	=13-	=13-	=13-
1BB	.	.	.	1B	.
.	.	2G/	.	.	.
*	*	*	*	*Xlig	*
=14-	=14-	=14-	=14-	=14-	=14-
*	*	*	*	*lig	*
2AA/	.	1A	.	1c	.
1A\	.	.	.	.	.
*	*	*custos:E	*	*	*
!	!	!LO:LB:g=original	!	!	!
=15-	=15-	=15-	=15-	=15-	=15-
.	.	2E/	.	1B	.
2G\	.	2B\	.	.	.
*	*	*	*	*Xlig	*
=16-	=16-	=16-	=16-	=16-	=16-
*	*	*	*	*lig	*
2F\	.	2c\	.	1A	-ti-
2D/	.	1d\	.	.	.
=17-	=17-	=17-	=17-	=17-	=17-
1E	.	.	.	1G	.
.	.	2c\	.	.	.
*custos:D	*	*	*	*	*
!LO:LB:g=original	!	!	!	!	!
=18-	=18-	=18-	=18-	=18-	=18-
2D/	.	2d\	.	1A	.
2C/	.	2e\	.	.	.
*	*	*	*	*Xlig	*
=19-	=19-	=19-	=19-	=19-	=19-
1D	.	2d\	.	[0Gl;;	-as.
.	.	2.d\	.	.	.
=20-	=20-	=20-	=20-	=20-	=20-
2GG/	-o	.	.	.	.
.	.	4c\	.	.	.
2.G\	gra-	4B\	.	.	.
.	.	4A/	.	.	.
=21-	=21-	=21-	=21-	=21-	=21-
.	.	4G/	.	0G_	.
!LO:TX:t=P:problem=4\middle&colon; global	!	!	!	!	!
4F\	.	4A/	.	.	.
4E\	.	2B\	.	.	.
4D/	.	.	.	.	.
*	*	*custos:c	*	*	*
!	!	!LO:LB:g=original	!	!	!
=22-	=22-	=22-	=22-	=22-	=22-
1.C	.	2.c\	.	.	.
.	.	4d\	.	.	.
=23-	=23-	=23-	=23-	=23-	=23-
.	.	2e	.	0G_	.
2BB/	.	2d	.	.	.
=24-	=24-	=24-	=24-	=24-	=24-
1C	.	1c	.	.	.
=25-	=25-	=25-	=25-	=25-	=25-
1C	-ti-	1c	-ti-	0.G]	.
=26-	=26-	=26-	=26-	=26-	=26-
0GG;;	-as	0B;;	-as	.	.
*	*Xij	*	*Xij	*	*
=-	=-	=-	=-	=-	=-
*-	*-	*-	*-	*-	*-
!!!system-decoration: [(g1)]
!!!RDF**kern: > = above
!!!RDF**kern: < = below
!!!RDF**kern: l = terminal long
!!!ENC: Andrzej Gręziak
!!!END: 2021-10-26
!!!EED: Jędrzej Mróz
!!!ESR: 2021-10-28
